X:156
T:The Widowed Bride
N:"Plaintively" "collected by F. O'Neill"
B:O'Neill's 156
Z:Transcribed by henrik.norbeck@mailbox.swipnet.se
M:C
L:1/8
K:Em
GF|E2 Bc B2 AB|cBAG F2 GF|E2 ef g2 fe|defd B2 AB|
cBAG F2 GA|BGFE ed2 ef|gefd eB A/c/B/A/|G2 TF2 EGFE2||
z B|e2 ef g2 fe|baga gf2 ed|eBef g2 fe|baga gf2 AB|
cBAG F2 GA|BGFE ed2 ef|gefd eB A/c/B/A/|G2 TF2 EGFE2||
